X:1
T:Title
%%score { ( 1 3 ) | 2 }
L:1/8
M:4/4
K:Eb
V:1 treble nm="Grand Piano"
V:3 treble 
V:2 bass 
V:1
 z4 z2 z[Q:1/4=94] G | G2 A>A G2 E>F | G6 z G | B2 c>c B2 G>A | B6 z2 | %5
 e2 d>[EAc] [EGB]2 [B,EG]>[B,FA] | [EGB]4 z [G,E][=A,E][A,EF] | [B,EG][EB] [EG]4 EE | %8
 F4 [G,B,E]2 z2 | [CE]8 |[M:7/8] [B,E]-[B,E]-[B,E]- [B,E]3 z |] %11
V:2
 z4 z2 z [E,B,E] | [E,B,E]2 [E,CE]>[E,CE] [E,B,E]2 [E,G,]>[E,A,E] | [E,B,E]6 z [E,B,E] | %3
 [E,G,E]2 [E,A,E]>[E,A,E] [E,G,E]2 [E,B,E]>[E,F,E] | [E,G,E]2 [E,G,]>[E,G,] [E,G,]2 z [E,G,E] | %5
 [G,B,E]2 [A,CE]>G, E,2 E,>E, | E,4 z E,C,C, | B,,[B,,G,] [B,,B,]4 [B,,G,B,][B,,G,B,] | %8
 [B,,A,B,]4 [E,,E,]2 z2 | [A,,A,]8 |[M:7/8] [E,G,]-[E,G,]-[E,G,]- [E,G,]3 z |] %11
V:3
 x8 | x8 | x8 | x8 | z2 E>E E2 z B | x8 | x8 | x8 | x8 | x8 |[M:7/8] x7 |] %11

